assets/socials/github.svg

<svg version="1.1" xmlns="http://www.w3.org/2000/svg" xmlns:xlink="http://www.w3.org/1999/xlink" width="640px" height="640px" viewBox="0,0,256,256"><g fill="#2c2c2c" fill-rule="nonzero" stroke="none" stroke-width="1" stroke-linecap="butt" stroke-linejoin="miter" stroke-miterlimit="10" stroke-dasharray="" stroke-dashoffset="0" font-family="none" font-weight="none" font-size="none" text-anchor="none" style="mix-blend-mode: normal"><g transform="translate(0,2.47851) scale(0.4,0.4)"><path d="M237.9,461.4c0,2 -2.3,3.6 -5.2,3.6c-3.3,0.3 -5.6,-1.3 -5.6,-3.6c0,-2 2.3,-3.6 5.2,-3.6c3,-0.3 5.6,1.3 5.6,3.6zM206.8,456.9c-0.7,2 1.3,4.3 4.3,4.9c2.6,1 5.6,0 6.2,-2c0.6,-2 -1.3,-4.3 -4.3,-5.2c-2.6,-0.7 -5.5,0.3 -6.2,2.3zM251,455.2c-2.9,0.7 -4.9,2.6 -4.6,4.9c0.3,2 2.9,3.3 5.9,2.6c2.9,-0.7 4.9,-2.6 4.6,-4.6c-0.3,-1.9 -3,-3.2 -5.9,-2.9zM316.8,72c-138.7,0 -244.8,105.3 -244.8,244c0,110.9 69.8,205.8 169.5,239.2c12.8,2.3 17.3,-5.6 17.3,-12.1c0,-6.2 -0.3,-40.4 -0.3,-61.4c0,0 -70,15 -84.7,-29.8c0,0 -11.4,-29.1 -27.8,-36.6c0,0 -22.9,-15.7 1.6,-15.4c0,0 24.9,2 38.6,25.8c21.9,38.6 58.6,27.5 72.9,20.9c2.3,-16 8.8,-27.1 16,-33.7c-55.9,-6.2 -112.3,-14.3 -112.3,-110.5c0,-27.5 7.6,-41.3 23.6,-58.9c-2.6,-6.5 -11.1,-33.3 2.6,-67.9c20.9,-6.5 69,27 69,27c20,-5.6 41.5,-8.5 62.8,-8.5c21.3,0 42.8,2.9 62.8,8.5c0,0 48.1,-33.6 69,-27c13.7,34.7 5.2,61.4 2.6,67.9c16,17.7 25.8,31.5 25.8,58.9c0,96.5 -58.9,104.2 -114.8,110.5c9.2,7.9 17,22.9 17,46.4c0,33.7 -0.3,75.4 -0.3,83.6c0,6.5 4.6,14.4 17.3,12.1c100,-33.2 167.8,-128.1 167.8,-239c0,-138.7 -112.5,-244 -251.2,-244zM169.2,416.9c-1.3,1 -1,3.3 0.7,5.2c1.6,1.6 3.9,2.3 5.2,1c1.3,-1 1,-3.3 -0.7,-5.2c-1.6,-1.6 -3.9,-2.3 -5.2,-1zM158.4,408.8c-0.7,1.3 0.3,2.9 2.3,3.9c1.6,1 3.6,0.7 4.3,-0.7c0.7,-1.3 -0.3,-2.9 -2.3,-3.9c-2,-0.6 -3.6,-0.3 -4.3,0.7zM190.8,444.4c-1.6,1.3 -1,4.3 1.3,6.2c2.3,2.3 5.2,2.6 6.5,1c1.3,-1.3 0.7,-4.3 -1.3,-6.2c-2.2,-2.3 -5.2,-2.6 -6.5,-1zM179.4,429.7c-1.6,1 -1.6,3.6 0,5.9c1.6,2.3 4.3,3.3 5.6,2.3c1.6,-1.3 1.6,-3.9 0,-6.2c-1.4,-2.3 -4,-3.3 -5.6,-2z"></path></g></g></svg>

<svg xmlns="http://www.w3.org/2000/svg" viewBox="0 0 640 640"><!--!Font Awesome Free 7.2.0 by @fontawesome - https://fontawesome.com License - https://fontawesome.com/license/free Copyright 2026 Fonticons, Inc.--><path d="M237.9 461.4C237.9 463.4 235.6 465 232.7 465C229.4 465.3 227.1 463.7 227.1 461.4C227.1 459.4 229.4 457.8 232.3 457.8C235.3 457.5 237.9 459.1 237.9 461.4zM206.8 456.9C206.1 458.9 208.1 461.2 211.1 461.8C213.7 462.8 216.7 461.8 217.3 459.8C217.9 457.8 216 455.5 213 454.6C210.4 453.9 207.5 454.9 206.8 456.9zM251 455.2C248.1 455.9 246.1 457.8 246.4 460.1C246.7 462.1 249.3 463.4 252.3 462.7C255.2 462 257.2 460.1 256.9 458.1C256.6 456.2 253.9 454.9 251 455.2zM316.8 72C178.1 72 72 177.3 72 316C72 426.9 141.8 521.8 241.5 555.2C254.3 557.5 258.8 549.6 258.8 543.1C258.8 536.9 258.5 502.7 258.5 481.7C258.5 481.7 188.5 496.7 173.8 451.9C173.8 451.9 162.4 422.8 146 415.3C146 415.3 123.1 399.6 147.6 399.9C147.6 399.9 172.5 401.9 186.2 425.7C208.1 464.3 244.8 453.2 259.1 446.6C261.4 430.6 267.9 419.5 275.1 412.9C219.2 406.7 162.8 398.6 162.8 302.4C162.8 274.9 170.4 261.1 186.4 243.5C183.8 237 175.3 210.2 189 175.6C209.9 169.1 258 202.6 258 202.6C278 197 299.5 194.1 320.8 194.1C342.1 194.1 363.6 197 383.6 202.6C383.6 202.6 431.7 169 452.6 175.6C466.3 210.3 457.8 237 455.2 243.5C471.2 261.2 481 275 481 302.4C481 398.9 422.1 406.6 366.2 412.9C375.4 420.8 383.2 435.8 383.2 459.3C383.2 493 382.9 534.7 382.9 542.9C382.9 549.4 387.5 557.3 400.2 555C500.2 521.8 568 426.9 568 316C568 177.3 455.5 72 316.8 72zM169.2 416.9C167.9 417.9 168.2 420.2 169.9 422.1C171.5 423.7 173.8 424.4 175.1 423.1C176.4 422.1 176.1 419.8 174.4 417.9C172.8 416.3 170.5 415.6 169.2 416.9zM158.4 408.8C157.7 410.1 158.7 411.7 160.7 412.7C162.3 413.7 164.3 413.4 165 412C165.7 410.7 164.7 409.1 162.7 408.1C160.7 407.5 159.1 407.8 158.4 408.8zM190.8 444.4C189.2 445.7 189.8 448.7 192.1 450.6C194.4 452.9 197.3 453.2 198.6 451.6C199.9 450.3 199.3 447.3 197.3 445.4C195.1 443.1 192.1 442.8 190.8 444.4zM179.4 429.7C177.8 430.7 177.8 433.3 179.4 435.6C181 437.9 183.7 438.9 185 437.9C186.6 436.6 186.6 434 185 431.7C183.6 429.4 181 428.4 179.4 429.7z"/></svg>
